; generated by PrusaSlicer 2.9.1 on 2026-05-03 at 21:48:49 UTC


;
;
; 

; external perimeters extrusion width = 0.45mm
; perimeters extrusion width = 0.45mm
; infill extrusion width = 0.45mm
; solid infill extrusion width = 0.45mm
; top infill extrusion width = 0.40mm
; support material extrusion width = 0.35mm
; first layer extrusion width = 0.42mm

; external perimeters extrusion width = 0.45mm
; perimeters extrusion width = 0.45mm
; infill extrusion width = 0.45mm
; solid infill extrusion width = 0.45mm
; top infill extrusion width = 0.40mm
; support material extrusion width = 0.35mm
; first layer extrusion width = 0.42mm

M73 P0 R172
M73 Q0 S179
M201 X1000 Y1000 Z200 E5000 ; sets maximum accelerations, mm/sec^2
M203 X200 Y200 Z12 E120 ; sets maximum feedrates, mm / sec
M204 S1250 T1250 ; sets acceleration (S) and retract acceleration (R), mm/sec^2
M205 X8.00 Y8.00 Z0.40 E4.50 ; sets the jerk limits, mm/sec
M205 S0 T0 ; sets the minimum extruding and travel feed rate, mm/sec

; printing object Sled.STL id:1 copy 0
; stop printing object Sled.STL id:1 copy 0
; printing object Base.STL id:0 copy 0
; stop printing object Base.STL id:0 copy 0

;TYPE:Custom
M862.3 P "MK3S" ; printer model check
M862.1 P0.4 ; nozzle diameter check
M115 U3.14.1 ; tell printer latest fw version
G90 ; use absolute coordinates
M83 ; extruder relative mode
M104 S215 ; set extruder temp
M140 S60 ; set bed temp
M190 S60 ; wait for bed temp
M109 S215 ; wait for extruder temp
G28 W ; home all without mesh bed level
G80 X141.171 Y29.76 W94.0732 H173.06 ; mesh bed levelling

G1 Z0.2 F720
G1 Y-3 F1000 ; go outside print area
G92 E0
G1 X60 E9 F1000 ; intro line
G1 X100 E12.5 F1000 ; intro line

G92 E0
M221 S95

; Don't change E values below. Excessive value can damage the printer.

M907 E538 ; set extruder motor current
G21 ; set units to millimeters
G90 ; use absolute coordinates
M83 ; use relative distances for extrusion

M900 K0.05 ; Filament gcode LA 1.5
M900 K30 ; Filament gcode LA 1.0




M107
;LAYER_CHANGE
;Z:0.2
;HEIGHT:0.2
G1 E-.8 F2100
M73 Q0 S178
G1 Z.6 F720
G1 X158.57 Y32.446 F10800
G1 Z.2 F720
G1 E.8 F2100
M204 S800
;TYPE:Skirt/Brim
;WIDTH:0.42
G1 F1200
G1 X159.185 Y31.234 E.04261
G1 X159.83 Y30.589 E.0286
G1 X161.377 Y29.948 E.0525
G1 X215.064 Y29.948 E1.68332
G1 X216.611 Y30.589 E.0525
G1 X217.256 Y31.234 E.0286
G1 X217.871 Y32.446 E.04261
G1 X235.029 Y143.198 E3.51398
G1 X235.055 Y168.033 E.77868
G1 X234.943 Y168.725 E.02198
G1 X232.517 Y175.933 E.23846
G1 X227.903 Y185.162 E.32352
G1 X227.493 Y185.73 E.02196
G1 X218.154 Y195.069 E.41411
G1 X217.585 Y195.479 E.02199
G1 X208.357 Y200.093 E.32349
G1 X201.149 Y202.519 E.23846
G1 X200.457 Y202.631 E.02198
G1 X175.957 Y202.631 E.76818
G1 X175.265 Y202.519 E.02198
G1 X168.057 Y200.093 E.23846
G1 X158.829 Y195.479 E.32349
G1 X158.26 Y195.069 E.02199
G1 X148.921 Y185.73 E.41411
G1 X148.511 Y185.162 E.02196
G1 X143.897 Y175.933 E.32352
G1 X141.471 Y168.725 E.23846
G1 X141.359 Y168.033 E.02198
G1 X141.385 Y143.198 E.77868
G1 X158.561 Y32.505 E3.51223
M204 S1000
;WIPE_START
G1 F8640
G1 X158.57 Y32.446 E-.01378
G1 X159.185 Y31.234 E-.31382
G1 X159.83 Y30.589 E-.21062
G1 X160.877 Y30.155 E-.26178
;WIPE_END
G1 Z.6 F720
G1 X180.033 Y118.095 F10800
G1 Z.2 F720
G1 E.8 F2100
M204 S800
G1 F1200
G1 X184.085 Y117.439 E.1287
G1 X188.678 Y117.242 E.14414
G1 X192.329 Y117.439 E.11464
G1 X196.381 Y118.095 E.1287
G1 X200.336 Y119.175 E.12855
G1 X204.163 Y120.674 E.12887
G1 X207.783 Y122.556 E.12793
G1 X211.204 Y124.825 E.12871
G1 X214.35 Y127.431 E.12809
G1 X217.215 Y130.371 E.12871
G1 X219.778 Y133.635 E.13012
G1 X221.954 Y137.117 E.12874
G1 X223.747 Y140.809 E.12869
G1 X225.137 Y144.672 E.12872
G1 X226.109 Y148.66 E.1287
G1 X226.651 Y152.724 E.12855
G1 X226.758 Y156.833 E.12888
G1 X226.431 Y160.899 E.1279
G1 X225.671 Y164.933 E.12871
G1 X224.491 Y168.85 E.12827
G1 X222.899 Y172.628 E.12854
G1 X220.888 Y176.258 E.13011
G1 X218.527 Y179.616 E.12871
G1 X215.822 Y182.704 E.12872
G1 X212.808 Y185.483 E.12854
G1 X209.524 Y187.922 E.12826
G1 X205.992 Y190.003 E.12854
G1 X202.254 Y191.699 E.1287
G1 X198.376 Y192.984 E.12809
G1 X194.364 Y193.854 E.12872
G1 X190.282 Y194.293 E.12873
G1 X186.177 Y194.295 E.12871
G1 X182.095 Y193.861 E.12871
G1 X178.083 Y192.996 E.12868
G1 X174.185 Y191.709 E.12871
G1 X170.858 Y190.202 E.11452
G1 X166.869 Y187.908 E.14428
G1 X163.576 Y185.458 E.12869
G1 X160.561 Y182.671 E.12873
G1 X157.863 Y179.585 E.12852
G1 X155.505 Y176.224 E.12873
G1 X153.526 Y172.651 E.12807
G1 X151.93 Y168.869 E.12871
G1 X150.749 Y164.958 E.1281
G1 X149.986 Y160.925 E.1287
G1 X149.656 Y156.833 E.12872
G1 X149.763 Y152.729 E.12872
G1 X150.306 Y148.66 E.12871
G1 X151.278 Y144.672 E.1287
G1 X152.668 Y140.809 E.12872
G1 X154.461 Y137.117 E.12869
G1 X156.636 Y133.635 E.12872
G1 X158.89 Y130.761 E.11452
G1 X162.065 Y127.431 E.14426
G1 X165.222 Y124.816 E.12853
G1 X168.627 Y122.559 E.12809
G1 X172.251 Y120.674 E.12808
G1 X176.073 Y119.177 E.1287
G1 X179.975 Y118.11 E.12684
M204 S1000
G1 X180.074 Y118.474 F10800
M204 S800
G1 F1200
G1 X180.123 Y118.461 E.00159
G1 X184.135 Y117.813 E.12742
G1 X188.195 Y117.595 E.12748
G1 X192.279 Y117.813 E.12823
G1 X196.292 Y118.461 E.12745
G1 X200.208 Y119.53 E.12728
G1 X203.998 Y121.013 E.12761
G1 X207.6 Y122.886 E.12729
G1 X210.987 Y125.134 E.12746
G1 X214.101 Y127.715 E.12681
G1 X216.938 Y130.627 E.12747
G1 X219.464 Y133.844 E.12825
G1 X221.619 Y137.29 E.12743
G1 X223.395 Y140.947 E.12747
M73 P0 R171
G1 X224.773 Y144.771 E.12745
G1 X225.736 Y148.72 E.12745
G1 X226.274 Y152.744 E.12729
G1 X226.381 Y156.813 E.12762
G1 X226.056 Y160.859 E.12727
G1 X225.302 Y164.854 E.12747
G1 X224.133 Y168.731 E.12697
G1 X222.556 Y172.472 E.12729
G1 X220.574 Y176.05 E.12825
G1 X218.236 Y179.375 E.12745
G1 X215.558 Y182.434 E.12747
G1 X212.575 Y185.186 E.12725
G1 X209.307 Y187.613 E.12763
G1 X205.809 Y189.673 E.12728
G1 X202.107 Y191.352 E.12745
G1 X198.267 Y192.623 E.12682
G1 X194.294 Y193.483 E.12746
G1 X190.252 Y193.917 E.12746
G1 X186.187 Y193.918 E.12746
G1 X182.145 Y193.487 E.12745
G1 X178.172 Y192.629 E.12744
G1 X174.312 Y191.354 E.12746
G1 X171.013 Y189.858 E.11358
G1 X167.086 Y187.599 E.14205
G1 X163.824 Y185.174 E.12744
G1 X160.838 Y182.415 E.12747
G1 X158.166 Y179.36 E.12726
G1 X155.83 Y176.033 E.12746
G1 X153.861 Y172.477 E.12745
G1 X152.281 Y168.731 E.12747
G1 X151.113 Y164.859 E.12681
G1 X150.359 Y160.864 E.12747
G1 X150.033 Y156.813 E.12743
G1 X150.14 Y152.749 E.12747
G1 X150.678 Y148.72 E.12745
G1 X151.642 Y144.771 E.12745
G1 X153.019 Y140.947 E.12744
G1 X154.796 Y137.29 E.12748
G1 X156.951 Y133.844 E.12743
G1 X159.186 Y130.994 E.11356
G1 X162.313 Y127.715 E.14207
G1 X165.439 Y125.125 E.12728
G1 X168.827 Y122.879 E.12745
G1 X172.416 Y121.013 E.12683
G1 X176.201 Y119.532 E.12744
G1 X180.017 Y118.49 E.12403
M204 S1000
;WIPE_START
G1 F8640
G1 X180.074 Y118.474 E-.01367
G1 X180.123 Y118.461 E-.01171
G1 X183.435 Y117.926 E-.77462
;WIPE_END
G1 Z.6 F720
G1 X180.017 Y109.703 F10800
G1 Z.2 F720
G1 E.8 F2100
M204 S800
G1 F1200
G1 X161.698 Y109.703 E.57438
G1 X161.451 Y109.595 E.00845
G1 X161.243 Y109.371 E.00958
G1 X161.167 Y109.158 E.00709
G1 X161.167 Y33.102 E2.38468
G1 X161.275 Y32.855 E.00845
G1 X161.499 Y32.648 E.00956
G1 X161.712 Y32.571 E.0071
G1 X214.775 Y32.578 E1.66375
G1 X215.174 Y32.862 E.01536
G1 X215.274 Y33.116 E.00856
G1 X215.274 Y109.172 E2.38468
G1 X215.166 Y109.419 E.00845
M73 Q0 S177
G1 X214.942 Y109.626 E.00956
G1 X214.729 Y109.703 E.0071
G1 X180.077 Y109.703 E1.08649
M204 S1000
G1 X180.077 Y109.307 F10800
M204 S800
G1 F1200
G1 X161.684 Y109.297 E.5767
G1 X161.544 Y109.116 E.00717
G1 X161.573 Y33.089 E2.38377
G1 X161.754 Y32.948 E.00719
G1 X214.687 Y32.948 E1.65968
G1 X214.897 Y33.158 E.00931
G1 X214.868 Y109.185 E2.38377
G1 X214.687 Y109.326 E.00719
G1 X180.137 Y109.307 E1.08329
M204 S1000
;WIPE_START
G1 F8640
G1 X180.077 Y109.307 E-.01385
G1 X176.672 Y109.305 E-.78615
;WIPE_END
G1 Z.6 F720
; printing object Base.STL id:0 copy 0
G1 X200.379 Y113.62 F10800
G1 Z.2 F720
G1 E.8 F2100
M204 S800
;TYPE:Support material
G1 F1200
G1 X207.3 Y113.62 E.217
G1 X207.3 Y115.927 E.07233
G1 X211.914 Y115.927 E.14467
G1 X211.914 Y118.234 E.07233
G1 X216.529 Y118.234 E.1447
G1 X216.529 Y120.541 E.07233
G1 X218.836 Y120.541 E.07233
G1 X218.836 Y122.848 E.07233
G1 X221.143 Y122.848 E.07233
G1 X221.143 Y125.155 E.07233
G1 X223.45 Y125.155 E.07233
G1 X223.45 Y127.462 E.07233
G1 X225.757 Y127.462 E.07233
G1 X225.757 Y132.076 E.14467
G1 X228.064 Y132.076 E.07233
G1 X228.064 Y136.69 E.14467
G1 X230.371 Y136.69 E.07233
G1 X230.371 Y143.612 E.21703
G1 X232.678 Y143.612 E.07233
G1 X232.678 Y167.955 E.76326
G1 X230.371 Y167.955 E.07233
G1 X230.371 Y174.876 E.217
G1 X228.064 Y174.876 E.07233
G1 X228.064 Y179.491 E.1447
G1 X225.757 Y179.491 E.07233
G1 X225.757 Y184.105 E.14467
G1 X223.45 Y184.105 E.07233
G1 X223.45 Y186.412 E.07233
G1 X221.143 Y186.412 E.07233
G1 X221.143 Y188.719 E.07233
G1 X218.836 Y188.719 E.07233
G1 X218.836 Y191.026 E.07233
G1 X216.529 Y191.026 E.07233
G1 X216.529 Y193.333 E.07233
G1 X211.914 Y193.333 E.1447
G1 X211.914 Y195.64 E.07233
G1 X207.3 Y195.64 E.14467
G1 X207.3 Y197.947 E.07233
G1 X200.379 Y197.947 E.217
G1 X200.379 Y200.254 E.07233
G1 X176.035 Y200.254 E.76329
G1 X176.035 Y197.947 E.07233
G1 X169.114 Y197.947 E.217
G1 X169.114 Y195.64 E.07233
G1 X164.5 Y195.64 E.14467
G1 X164.5 Y193.333 E.07233
G1 X159.886 Y193.333 E.14467
G1 X159.886 Y191.026 E.07233
G1 X157.579 Y191.026 E.07233
G1 X157.579 Y188.719 E.07233
G1 X155.272 Y188.719 E.07233
G1 X155.272 Y186.412 E.07233
G1 X152.965 Y186.412 E.07233
G1 X152.965 Y184.105 E.07233
G1 X150.658 Y184.105 E.07233
G1 X150.658 Y179.491 E.14467
G1 X148.35 Y179.491 E.07237
G1 X148.35 Y174.876 E.1447
G1 X146.043 Y174.876 E.07233
G1 X146.043 Y167.955 E.217
G1 X143.736 Y167.955 E.07233
G1 X143.736 Y143.612 E.76326
G1 X146.043 Y143.612 E.07233
G1 X146.043 Y136.69 E.21703
G1 X148.35 Y136.69 E.07233
G1 X148.35 Y132.076 E.14467
G1 X150.658 Y132.076 E.07237
G1 X150.658 Y127.462 E.14467
G1 X152.965 Y127.462 E.07233
G1 X152.965 Y125.155 E.07233
G1 X155.272 Y125.155 E.07233
G1 X155.272 Y122.848 E.07233
G1 X157.579 Y122.848 E.07233
G1 X157.579 Y120.541 E.07233
G1 X159.886 Y120.541 E.07233
G1 X159.886 Y118.234 E.07233
G1 X164.5 Y118.234 E.14467
G1 X164.5 Y115.927 E.07233
G1 X169.114 Y115.927 E.14467
G1 X169.114 Y113.62 E.07233
G1 X176.035 Y113.62 E.217
G1 X176.035 Y111.313 E.07233
G1 X200.379 Y111.313 E.76329
G1 X200.379 Y113.563 E.07055
M204 S1000
G1 X188.106 Y116.377 F10800
M204 S800
G1 F1200
G1 X192.46 Y116.605 E.1367
G1 X196.6 Y117.279 E.13152
G1 X200.645 Y118.389 E.13152
G1 X204.433 Y119.87 E.12752
G1 X208.158 Y121.798 E.13151
G1 X211.658 Y124.112 E.13156
G1 X214.891 Y126.784 E.13151
G1 X217.907 Y129.881 E.13554
G1 X220.492 Y133.184 E.13151
G1 X222.711 Y136.744 E.13153
G1 X224.54 Y140.52 E.13155
G1 X225.956 Y144.468 E.13151
G1 X226.945 Y148.544 E.13151
M73 P1 R171
G1 X227.495 Y152.703 E.13154
G1 X227.6 Y156.897 E.13154
G1 X227.258 Y161.077 E.1315
G1 X226.475 Y165.198 E.13152
G1 X225.257 Y169.213 E.13155
G1 X223.62 Y173.075 E.13152
G1 X221.581 Y176.741 E.13153
G1 X219.244 Y180.069 E.12751
G1 X216.486 Y183.23 E.13153
G1 X213.31 Y186.162 E.13553
M73 P1 R170
G1 X209.939 Y188.658 E.13151
G1 X206.321 Y190.782 E.13154
G1 X202.498 Y192.509 E.13153
G1 X198.514 Y193.82 E.1315
G1 X194.412 Y194.7 E.13154
G1 X190.241 Y195.139 E.1315
M73 Q1 S177
G1 X186.174 Y195.139 E.12752
G1 X182.002 Y194.7 E.13153
G1 X177.901 Y193.82 E.13151
G1 X173.916 Y192.509 E.13153
G1 X170.093 Y190.782 E.13153
G1 X166.476 Y188.658 E.13152
G1 X163.104 Y186.162 E.13154
G1 X160.045 Y183.347 E.13034
G1 X157.171 Y180.069 E.13669
G1 X154.765 Y176.632 E.13155
G1 X152.739 Y172.959 E.13152
G1 X151.114 Y169.092 E.13152
G1 X149.909 Y165.074 E.13153
G1 X149.156 Y161.077 E.12753
G1 X148.814 Y156.897 E.1315
G1 X148.919 Y152.703 E.13154
G1 X149.469 Y148.544 E.13154
G1 X150.458 Y144.468 E.13151
G1 X151.862 Y140.555 E.13035
G1 X153.765 Y136.632 E.13671
G1 X155.996 Y133.079 E.13154
G1 X158.592 Y129.784 E.13152
G1 X161.429 Y126.871 E.12749
G1 X164.654 Y124.188 E.13154
G1 X168.146 Y121.863 E.13154
G1 X171.865 Y119.923 E.13152
G1 X175.769 Y118.389 E.13152
G1 X179.814 Y117.279 E.13152
G1 X183.955 Y116.605 E.13155
G1 X188.049 Y116.38 E.12856
M204 S1000
;WIPE_START
G1 F8640
G1 X184.589 Y116.57 E-.8
;WIPE_END
G1 Z.6 F720
G1 X232.2 Y167.785 F10800
G1 Z.2 F720
G1 E.8 F2100
M204 S800
G1 F1200
G1 X232.2 Y143.951 E.7473
G1 X231.781 Y143.951 E.01314
G1 X231.781 Y167.616 E.742
G1 X231.362 Y167.616 E.01314
G1 X231.362 Y143.951 E.742
G1 X230.943 Y143.951 E.01314
G1 X230.943 Y167.616 E.742
G1 X230.524 Y167.616 E.01314
G1 X230.524 Y143.951 E.742
G1 X230.105 Y143.951 E.01314
G1 X230.105 Y167.616 E.742
G1 X230.032 Y167.616 E.00229
G1 X230.032 Y174.537 E.217
G1 X229.686 Y174.537 E.01085
G1 X229.686 Y137.03 E1.17601
G1 X229.267 Y137.03 E.01314
G1 X229.267 Y174.537 E1.17601
G1 X228.848 Y174.537 E.01314
M73 Q1 S176
G1 X228.848 Y137.03 E1.17601
G1 X228.429 Y137.03 E.01314
G1 X228.429 Y174.537 E1.17601
G1 X228.01 Y174.537 E.01314
G1 X228.01 Y137.03 E1.17601
G1 X227.725 Y137.03 E.00894
G1 X227.725 Y132.416 E.14467
G1 X227.591 Y132.416 E.0042
G1 X227.591 Y150.811 E.57676
G1 X227.172 Y148.015 E.08865
G1 X227.172 Y132.416 E.4891
G1 X226.753 Y132.416 E.01314
G1 X226.753 Y146.3 E.43532
G1 X226.334 Y144.585 E.05535
G1 X226.334 Y132.416 E.38155
G1 X225.915 Y132.416 E.01314
G1 X225.915 Y143.333 E.34229
G1 X225.496 Y142.172 E.0387
G1 X225.496 Y132.416 E.30589
G1 X225.417 Y132.416 E.00248
G1 X225.417 Y127.801 E.1447
G1 X225.077 Y127.801 E.01066
G1 X225.077 Y141.01 E.41416
G1 X224.658 Y139.972 E.0351
G1 X224.658 Y127.801 E.38161
G1 X224.239 Y127.801 E.01314
G1 X224.239 Y139.11 E.35459
G1 X223.82 Y138.249 E.03002
G1 X223.82 Y127.801 E.32759
G1 X223.401 Y127.801 E.01314
G1 X223.401 Y137.387 E.30056
G1 X222.982 Y136.533 E.02983
G1 X222.982 Y125.494 E.34612
G1 X222.563 Y125.494 E.01314
G1 X222.563 Y135.855 E.32486
G1 X222.144 Y135.185 E.02478
G1 X222.144 Y125.494 E.30385
G1 X221.725 Y125.494 E.01314
G1 X221.725 Y134.516 E.28288
G1 X221.306 Y133.846 E.02478
G1 X221.306 Y125.494 E.26187
G1 X220.887 Y125.494 E.01314
G1 X220.887 Y133.176 E.24086
G1 X220.468 Y132.594 E.02249
G1 X220.468 Y123.187 E.29495
G1 X220.049 Y123.187 E.01314
G1 X220.049 Y132.06 E.27821
G1 X219.63 Y131.526 E.02128
G1 X219.63 Y123.187 E.26146
G1 X219.211 Y123.187 E.01314
G1 X219.211 Y130.993 E.24475
G1 X218.793 Y130.459 E.02126
G1 X218.793 Y123.187 E.22801
G1 X218.496 Y123.187 E.00931
G1 X218.496 Y120.88 E.07233
G1 X218.374 Y120.88 E.00383
G1 X218.374 Y129.925 E.2836
G1 X217.955 Y129.433 E.02026
G1 X217.955 Y120.88 E.26817
G1 X217.536 Y120.88 E.01314
G1 X217.536 Y129.003 E.25469
G1 X217.117 Y128.573 E.01882
G1 X217.117 Y120.88 E.24121
G1 X216.698 Y120.88 E.01314
G1 X216.698 Y128.142 E.22769
G1 X216.279 Y127.712 E.01882
G1 X216.279 Y120.88 E.21421
G1 X216.189 Y120.88 E.00282
G1 X216.189 Y118.573 E.07233
G1 X215.86 Y118.573 E.01032
G1 X215.86 Y127.282 E.27306
G1 X215.441 Y126.852 E.01882
G1 X215.441 Y118.573 E.25958
G1 X215.022 Y118.573 E.01314
G1 X215.022 Y126.451 E.24701
G1 X214.603 Y126.104 E.01706
G1 X214.603 Y118.573 E.23613
G1 X214.184 Y118.573 E.01314
G1 X214.184 Y125.756 E.22522
G1 X213.765 Y125.409 E.01706
G1 X213.765 Y118.573 E.21434
G1 X213.346 Y118.573 E.01314
G1 X213.346 Y125.061 E.20343
G1 X212.927 Y124.714 E.01706
G1 X212.927 Y118.573 E.19255
G1 X212.508 Y118.573 E.01314
G1 X212.508 Y124.367 E.18167
G1 X212.089 Y124.019 E.01708
G1 X212.089 Y118.573 E.17076
G1 X211.67 Y118.573 E.01314
G1 X211.67 Y123.712 E.16113
G1 X211.251 Y123.434 E.01577
G1 X211.251 Y116.266 E.22475
G1 X210.832 Y116.266 E.01314
G1 X210.832 Y123.157 E.21606
G1 X210.413 Y122.879 E.01577
G1 X210.413 Y116.266 E.20735
G1 X209.994 Y116.266 E.01314
G1 X209.994 Y122.601 E.19863
G1 X209.575 Y122.323 E.01577
G1 X209.575 Y116.266 E.18991
G1 X209.156 Y116.266 E.01314
G1 X209.156 Y122.045 E.1812
G1 X208.737 Y121.767 E.01577
G1 X208.737 Y116.266 E.17248
G1 X208.318 Y116.266 E.01314
G1 X208.318 Y121.499 E.16408
G1 X207.899 Y121.281 E.01481
G1 X207.899 Y116.266 E.15724
